X:1
T:Title
%%score ( 1 2 ) ( 3 4 )
L:1/8
Q:1/4=100
M:6/8
K:Ab
V:1 treble nm="Grand Piano, Staff"
V:2 treble 
V:3 bass nm="Choir Pad, Pastor Bonus, SMD"
V:4 bass 
V:1
 [CA]AG [CF] [CE]2 | [DF] G2- G F2 | [DE]AG [CF] [CE]2 | [CF] G2- G F2 | [DE]EF [DG] [EA]2 | %5
w: By~Alfred~James~Caldicott~(1842–1897) * * * *|||||
 [Ec] [=Ec]2 [EB] [FA]2 | CC=D [CE] [DG]2 | [=DF] [DF]2- [DF] E2 | z .A2 z3 | %9
w: ||||
 [Ac] [Ge]2- [Ge] [EB]2 | [Cc] [CA]2 [FA]AG | [FA] [Fc]2- [Fc] [=EG]2 | z3 z A2 | %13
w: ||||
 [_Gc] [Af]2 [Ge] [Fd]2 | [Ec] [DB]2 [DF]D-[DG] | [DA] [DB]2- [DB] [CA]2- | [CA]6 |] %17
w: ||||
V:2
 z C2 z3 | z D2- D2- D/ z/ | z C2 z3 | z D2- D2- D/ z/ | z C2 z3 | x6 | x6 | x6 | %8
 Ec-[Gc] [Fc] [EB]2 | x6 | x6 | x6 | [=EA] F2 [_EG]EF | x6 | z3 z .F2 | x6 | x6 |] %17
V:3
 [A,,E,] [A,,E,]2 [A,,A,]A,G, | [A,,F,] B,2- B, A,2 | [E,G,] [A,,A,]2 [E,A,]A,G, | %3
 [F,A,] B,2- B, A,2 | [E,G,] A,2 [A,B,] [A,C]2 | [A,C] [G,C]2 [G,C] [F,C]2 | %6
 [G,B,] [F,A,]2 [F,A,] [B,,B,]2 | [B,,A,] [B,,A,]2- [B,,A,] [E,G,]2 | %8
 E, [A,,E,]2 [E,A,][A,C][G,B,] | [F,A,] B,2- B, G,2 | [=E,G,]A,-[_E,A,] [D,A,]CB, | %11
 [C,A,] G,2- G, C2 | [C,B,] [D,A,]2 [D,B,] [C,A,]2 | [E,A,]CB, [A,C] [D,D]2 | z3 z .A,2 | %15
 [B,,F,] [E,G,]2- [E,G,] [A,,A,]2- | [A,,A,]6 |] %17
V:4
 z3 z A,,2 | z E,2- E,2- E,/ z/ | x6 | z E,2- E,2- E,/ z/ | x6 | x6 | x6 | x6 | x6 | %9
 z E,2- E,2- E,/ z/ | z .F,2 z C,2 | z C,2- C,2- C,/ z/ | x6 | z A,2 z3 | %14
 [F,=A,] [B,,B,]2 [B,,_A,]B,,-[B,,G,] | x6 | x6 |] %17

